X:1
T:Port of Spain, 87.87 D
T:Port of Spain, 87.87 D
T:Mark M. Jones, 1896
T:Public Domain Courtesy of the Cyber Hymnal™
C:Mark M. Jones, 1896
Z:Public Domain
Z:Courtesy of the Cyber Hymnal™
%%score ( 1 2 ) ( 3 4 )
L:1/8
Q:1/4=100
M:3/4
K:Bb
V:1 treble 
V:2 treble 
V:3 bass 
V:4 bass 
V:1
 F>F | B3 A (3:2:1G x17/24 | F2 D2 [FB]>[Fc] | [Fd]3 [Fd] [Fc][=EB] | [Fc]4 F>F | B3 D (3(EF)G | %6
 G2 F2 [FB]F | [EG] (d/c/) [FB]2 [EA]2 | [DB]4 [Fc]>[Fc] | [Fc]2 F2 [Fd]>[Fd] | %10
 [Fd]2 [FB]2 [EG][EG] | [Ge]3 [Gd] [Gc][GB] | (B2 A2) [EF][EF] | [DB]2 [DB]2 [Fd][_Af] | %14
 [Gf]2 !fermata![Ge]2 [GB][Gc] | [Fd][FB] [Ac]3 [FB] | [FB]4 |] %17
V:2
 F>F | B3 A (3:2:2(cB) | F2 D2 x2 | x6 | x4 F>F | B3 D x2 | G2 F2 F x | x G x4 | x6 | x2 F2 x2 | %10
 x6 | x6 | F4 x2 | x6 | x6 | x6 | x4 |] %17
V:3
 F,>F, | B,3 A, (3:2:1G, x17/24 | F,2 D,2 [D,B,]>[F,A,] | B,3 B, [A,C]G, | [F,A,]4 F,>F, | %5
 B,3 D, x2 | G,2 F,2 [D,F,][D,B,] | [E,B,][E,E] [F,D]2 [F,,F,C]2 | [B,,B,]4 [F,A,]>[F,A,] | %9
 [F,A,]2 [A,C]2 B,>B, | B,2 [D,B,]2 [E,B,][E,B,] | [C,C]3 [D,=B,] [E,C][=E,^C] | %12
 (D2 C2) [F,A,][A,C] | B,2 B,2 B,[D,B,] | [E,B,]2 !fermata![E,B,]2 [E,E][E,E] | %15
 [F,B,][F,D] [F,,F,E]3 [F,,F,E] | [B,,D]4 |] %17
V:4
 F,>F, | B,3 A, (3:2:2(CB,) | F,2 D,2 x2 | B,3 B, G, x | x4 F,>F, | B,3 D, (3(E,F,)G, | %6
 G,2 F,2 x2 | x6 | x6 | x4 B,>B, | B,2 x4 | x6 | F,4 x2 | B,2 B,2 B, x | x6 | x6 | x4 |] %17

